DSView/icons/light/moder.svg

<?xml version="1.0" encoding="UTF-8" standalone="no"?>
<!DOCTYPE svg PUBLIC "-//W3C//DTD SVG 1.1//EN" "http://www.w3.org/Graphics/SVG/1.1/DTD/svg11.dtd">
<!-- 由 Microsoft Visio, SVG Export 生成 moder.svg 页-1 -->
<svg xmlns="http://www.w3.org/2000/svg" xmlns:xlink="http://www.w3.org/1999/xlink" xmlns:ev="http://www.w3.org/2001/xml-events"
		xmlns:v="http://schemas.microsoft.com/visio/2003/SVGExtensions/" width="5.33333in" height="3.69417in"
		viewBox="0 0 384 265.98" xml:space="preserve" color-interpolation-filters="sRGB" class="st4">
	<v:documentProperties v:langID="2052" v:viewMarkup="false"/>

	<style type="text/css">
	<![CDATA[
		.st1 {fill:#2a2a2a;stroke:#2a2a2a;stroke-linecap:butt;stroke-width:1.37143}
		.st2 {fill:#2a2a2a;stroke:#2a2a2a;stroke-linecap:round;stroke-linejoin:round;stroke-width:0.5}
		.st3 {stroke:#2a2a2a;stroke-linecap:round;stroke-linejoin:round;stroke-width:10}
		.st4 {fill:none;fill-rule:evenodd;font-size:12px;overflow:visible;stroke-linecap:square;stroke-miterlimit:3}
	]]>
	</style>

	<g v:mID="0" v:index="1" v:groupContext="foregroundPage">
		<title>页-1</title>
		<v:pageProperties v:drawingScale="0.0393701" v:pageScale="0.0393701" v:drawingUnits="24" v:shadowOffsetX="9"
				v:shadowOffsetY="-9"/>
		<g id="group333-1" v:mID="333" v:groupContext="group">
			<title>工作表.333</title>
			<g id="group334-2" transform="translate(28.3465,-17.0079)" v:mID="334" v:groupContext="group">
				<title>工作表.334</title>
				<g id="shape335-3" v:mID="335" v:groupContext="shape">
					<title>工作表.335</title>
					<path d="M210.25 43.2 L111.39 43.2 C49.97 43.2 0 93.17 0 154.59 C0 216.01 49.97 265.98 111.39 265.98 L210.25
								 265.98 C271.67 265.98 321.64 216.01 321.64 154.59 C321.64 93.17 271.67 43.2 210.25 43.2 ZM210.25
								 245.3 L111.39 245.3 C61.37 245.3 20.68 204.61 20.68 154.59 C20.68 104.57 61.37 63.87 111.39 63.87
								 L210.25 63.87 C260.27 63.87 300.96 104.57 300.96 154.59 C300.96 204.61 260.27 245.3 210.25 245.3
								 Z" class="st1"/>
				</g>
			</g>
			<g id="group336-5" transform="translate(130.227,-65.6784)" v:mID="336" v:groupContext="group">
				<title>工作表.336</title>
				<g id="shape337-6" v:mID="337" v:groupContext="shape" transform="translate(0,-46.887)">
					<title>圆形</title>
					<v:userDefs>
						<v:ud v:nameU="visVersion" v:val="VT0(15):26"/>
					</v:userDefs>
					<path d="M0 258.81 A7.16737 7.16737 0 0 1 14.33 258.81 A7.16737 7.16737 0 1 1 0 258.81 Z" class="st2"/>
				</g>
				<g id="shape338-8" v:mID="338" v:groupContext="shape" transform="translate(6.19056,-26.6914)">
					<title>圆形.45</title>
					<v:userDefs>
						<v:ud v:nameU="visVersion" v:val="VT0(15):26"/>
					</v:userDefs>
					<path d="M0 258.81 A7.16737 7.16737 0 0 1 14.33 258.81 A7.16737 7.16737 0 1 1 0 258.81 Z" class="st2"/>
				</g>
				<g id="shape339-10" v:mID="339" v:groupContext="shape" transform="translate(20.2567,-11.7218)">
					<title>圆形.46</title>
					<v:userDefs>
						<v:ud v:nameU="visVersion" v:val="VT0(15):26"/>
					</v:userDefs>
					<path d="M0 259.34 A6.64233 6.64233 0 0 1 13.28 259.34 A6.64233 6.64233 0 1 1 0 259.34 Z" class="st2"/>
				</g>
				<g id="shape340-12" v:mID="340" v:groupContext="shape" transform="translate(37.4486,-3.41885)">
					<title>圆形.47</title>
					<v:userDefs>
						<v:ud v:nameU="visVersion" v:val="VT0(15):26"/>
					</v:userDefs>
					<path d="M0 260.12 A5.86088 5.86088 0 0 1 11.72 260.12 A5.86088 5.86088 0 1 1 0 260.12 Z" class="st2"/>
				</g>
				<g id="shape341-14" v:mID="341" v:groupContext="shape" transform="translate(54.4777,0)">
					<title>圆形.48</title>
					<v:userDefs>
						<v:ud v:nameU="visVersion" v:val="VT0(15):26"/>
					</v:userDefs>
					<path d="M0 260.82 A5.16083 5.16083 0 1 1 10.32 260.82 A5.16083 5.16083 0 1 1 0 260.82 Z" class="st2"/>
				</g>
				<g id="shape342-16" v:mID="342" v:groupContext="shape" transform="translate(0.0936113,-65.424)">
					<title>圆形.50</title>
					<v:userDefs>
						<v:ud v:nameU="visVersion" v:val="VT0(15):26"/>
					</v:userDefs>
					<path d="M0 258.45 A7.53185 7.53185 0 0 1 15.06 258.45 A7.53185 7.53185 0 1 1 0 258.45 Z" class="st2"/>
				</g>
				<g id="shape343-18" v:mID="343" v:groupContext="shape" transform="translate(7.01314,-83.7592)">
					<title>圆形.51</title>
					<v:userDefs>
						<v:ud v:nameU="visVersion" v:val="VT0(15):26"/>
					</v:userDefs>
					<path d="M0 257.84 A8.14418 8.14418 0 0 1 16.29 257.84 A8.14418 8.14418 0 1 1 0 257.84 Z" class="st2"/>
				</g>
				<g id="shape344-20" v:mID="344" v:groupContext="shape" transform="translate(20.123,-99.5322)">
					<title>圆形.52</title>
					<v:userDefs>
						<v:ud v:nameU="visVersion" v:val="VT0(15):26"/>
					</v:userDefs>
					<path d="M0 257.84 A8.14418 8.14418 0 0 1 16.29 257.84 A8.14418 8.14418 0 1 1 0 257.84 Z" class="st2"/>
				</g>
				<g id="shape345-22" v:mID="345" v:groupContext="shape" transform="translate(38.6825,-108.332)">
					<title>圆形.53</title>
					<v:userDefs>
						<v:ud v:nameU="visVersion" v:val="VT0(15):26"/>
					</v:userDefs>
					<path d="M0 257.84 A8.14418 8.14418 0 0 1 16.29 257.84 A8.14418 8.14418 0 1 1 0 257.84 Z" class="st2"/>
				</g>
				<g id="shape346-24" v:mID="346" v:groupContext="shape" transform="translate(59.4526,-109.155)">
					<title>圆形.54</title>
					<v:userDefs>
						<v:ud v:nameU="visVersion" v:val="VT0(15):26"/>
					</v:userDefs>
					<path d="M0 257.84 A8.14418 8.14418 0 0 1 16.29 257.84 A8.14418 8.14418 0 1 1 0 257.84 Z" class="st2"/>
				</g>
				<g id="shape347-26" v:mID="347" v:groupContext="shape" transform="translate(79.0705,-101.589)">
					<title>圆形.55</title>
					<v:userDefs>
						<v:ud v:nameU="visVersion" v:val="VT0(15):26"/>
					</v:userDefs>
					<path d="M0 257.84 A8.14418 8.14418 0 0 1 16.29 257.84 A8.14418 8.14418 0 1 1 0 257.84 Z" class="st2"/>
				</g>
				<g id="shape348-28" v:mID="348" v:groupContext="shape" transform="translate(93.7741,-86.0369)">
					<title>圆形.56</title>
					<v:userDefs>
						<v:ud v:nameU="visVersion" v:val="VT0(15):26"/>
					</v:userDefs>
					<path d="M0 257.84 A8.14418 8.14418 0 0 1 16.29 257.84 A8.14418 8.14418 0 1 1 0 257.84 Z" class="st2"/>
				</g>
				<g id="shape349-30" v:mID="349" v:groupContext="shape" transform="translate(101.589,-66.4233)">
					<title>圆形.57</title>
					<v:userDefs>
						<v:ud v:nameU="visVersion" v:val="VT0(15):26"/>
					</v:userDefs>
					<path d="M0 257.84 A8.14418 8.14418 0 0 1 16.29 257.84 A8.14418 8.14418 0 1 1 0 257.84 Z" class="st2"/>
				</g>
			</g>
			<g id="shape350-32" v:mID="350" v:groupContext="shape" transform="translate(514.745,168.79) rotate(105.104)">
				<title>工作表.350</title>
				<path d="M0 265.98 L41.88 265.98" class="st3"/>
			</g>
			<g id="shape351-35" v:mID="351" v:groupContext="shape" transform="translate(316.798,-120.151) rotate(23.9625)">
				<title>工作表.351</title>
				<path d="M0 265.98 L41.88 265.98" class="st3"/>
			</g>
		</g>
	</g>
</svg>

<?xml version="1.0" encoding="UTF-8" standalone="no"?>
<!-- 由 Microsoft Visio, SVG Export 生成 moder.svg 页-1 -->

<svg
   xmlns:v="http://schemas.microsoft.com/visio/2003/SVGExtensions/"
   xmlns:dc="http://purl.org/dc/elements/1.1/"
   xmlns:cc="http://creativecommons.org/ns#"
   xmlns:rdf="http://www.w3.org/1999/02/22-rdf-syntax-ns#"
   xmlns:svg="http://www.w3.org/2000/svg"
   xmlns="http://www.w3.org/2000/svg"
   xmlns:sodipodi="http://sodipodi.sourceforge.net/DTD/sodipodi-0.dtd"
   xmlns:inkscape="http://www.inkscape.org/namespaces/inkscape"
   width="512"
   height="512"
   viewBox="0 0 384.00023 383.99965"
   xml:space="preserve"
   class="st4"
   version="1.1"
   id="svg97"
   sodipodi:docname="moder.svg"
   style="font-size:12px;overflow:visible;color-interpolation-filters:sRGB;fill:none;fill-rule:evenodd;stroke-linecap:square;stroke-miterlimit:3"
   inkscape:version="0.92.4 (5da689c313, 2019-01-14)"><metadata
   id="metadata103"><rdf:RDF><cc:Work
       rdf:about=""><dc:format>image/svg+xml</dc:format><dc:type
         rdf:resource="http://purl.org/dc/dcmitype/StillImage" /><dc:title></dc:title></cc:Work></rdf:RDF></metadata><defs
   id="defs101" /><sodipodi:namedview
   pagecolor="#ffffff"
   bordercolor="#666666"
   borderopacity="1"
   objecttolerance="10"
   gridtolerance="10"
   guidetolerance="10"
   inkscape:pageopacity="0"
   inkscape:pageshadow="2"
   inkscape:window-width="793"
   inkscape:window-height="480"
   id="namedview99"
   showgrid="false"
   units="px"
   inkscape:zoom="0.66210977"
   inkscape:cx="255.99985"
   inkscape:cy="177.32016"
   inkscape:window-x="0"
   inkscape:window-y="0"
   inkscape:window-maximized="0"
   inkscape:current-layer="svg97" />
	<v:documentProperties
   v:langID="2052"
   v:viewMarkup="false" />

	<style
   type="text/css"
   id="style2">
	<![CDATA[
		.st1 {fill:#2a2a2a;stroke:#2a2a2a;stroke-linecap:butt;stroke-width:1.37143}
		.st2 {fill:#2a2a2a;stroke:#2a2a2a;stroke-linecap:round;stroke-linejoin:round;stroke-width:0.5}
		.st3 {stroke:#2a2a2a;stroke-linecap:round;stroke-linejoin:round;stroke-width:10}
		.st4 {fill:none;fill-rule:evenodd;font-size:12px;overflow:visible;stroke-linecap:square;stroke-miterlimit:3}
	]]>
	</style>

	<g
   v:mID="0"
   v:index="1"
   v:groupContext="foregroundPage"
   id="g95"
   transform="translate(2.833615,54.417725)">
		<title
   id="title4">页-1</title>
		<v:pageProperties
   v:drawingScale="0.0393701"
   v:pageScale="0.0393701"
   v:drawingUnits="24"
   v:shadowOffsetX="9"
   v:shadowOffsetY="-9" />
		<g
   id="group333-1"
   v:mID="333"
   v:groupContext="group">
			<title
   id="title6">工作表.333</title>
			<g
   id="group334-2"
   transform="translate(28.3465,-17.0079)"
   v:mID="334"
   v:groupContext="group">
				<title
   id="title8">工作表.334</title>
				<g
   id="shape335-3"
   v:mID="335"
   v:groupContext="shape">
					<title
   id="title10">工作表.335</title>
					<path
   d="M 210.25,43.2 H 111.39 C 49.97,43.2 0,93.17 0,154.59 0,216.01 49.97,265.98 111.39,265.98 h 98.86 c 61.42,0 111.39,-49.97 111.39,-111.39 C 321.64,93.17 271.67,43.2 210.25,43.2 Z m 0,202.1 h -98.86 c -50.02,0 -90.71,-40.69 -90.71,-90.71 0,-50.02 40.69,-90.72 90.71,-90.72 h 98.86 c 50.02,0 90.71,40.7 90.71,90.72 0,50.02 -40.69,90.71 -90.71,90.71 z"
   class="st1"
   id="path12"
   inkscape:connector-curvature="0"
   style="fill:#2a2a2a;stroke:#2a2a2a;stroke-width:1.37143004;stroke-linecap:butt" />
				</g>
			</g>
			<g
   id="group336-5"
   transform="translate(130.227,-65.6784)"
   v:mID="336"
   v:groupContext="group">
				<title
   id="title16">工作表.336</title>
				<g
   id="shape337-6"
   v:mID="337"
   v:groupContext="shape"
   transform="translate(0,-46.887)">
					<title
   id="title18">圆形</title>
					<v:userDefs>
						<v:ud
   v:nameU="visVersion"
   v:val="VT0(15):26" />
					</v:userDefs>
					<path
   d="m 0,258.81 a 7.16737,7.16737 0 0 1 14.33,0 7.16737,7.16737 0 1 1 -14.33,0 z"
   class="st2"
   id="path20"
   inkscape:connector-curvature="0"
   style="fill:#2a2a2a;stroke:#2a2a2a;stroke-width:0.5;stroke-linecap:round;stroke-linejoin:round" />
				</g>
				<g
   id="shape338-8"
   v:mID="338"
   v:groupContext="shape"
   transform="translate(6.19056,-26.6914)">
					<title
   id="title23">圆形.45</title>
					<v:userDefs>
						<v:ud
   v:nameU="visVersion"
   v:val="VT0(15):26" />
					</v:userDefs>
					<path
   d="m 0,258.81 a 7.16737,7.16737 0 0 1 14.33,0 7.16737,7.16737 0 1 1 -14.33,0 z"
   class="st2"
   id="path25"
   inkscape:connector-curvature="0"
   style="fill:#2a2a2a;stroke:#2a2a2a;stroke-width:0.5;stroke-linecap:round;stroke-linejoin:round" />
				</g>
				<g
   id="shape339-10"
   v:mID="339"
   v:groupContext="shape"
   transform="translate(20.2567,-11.7218)">
					<title
   id="title28">圆形.46</title>
					<v:userDefs>
						<v:ud
   v:nameU="visVersion"
   v:val="VT0(15):26" />
					</v:userDefs>
					<path
   d="m 0,259.34 a 6.64233,6.64233 0 0 1 13.28,0 6.64233,6.64233 0 1 1 -13.28,0 z"
   class="st2"
   id="path30"
   inkscape:connector-curvature="0"
   style="fill:#2a2a2a;stroke:#2a2a2a;stroke-width:0.5;stroke-linecap:round;stroke-linejoin:round" />
				</g>
				<g
   id="shape340-12"
   v:mID="340"
   v:groupContext="shape"
   transform="translate(37.4486,-3.41885)">
					<title
   id="title33">圆形.47</title>
					<v:userDefs>
						<v:ud
   v:nameU="visVersion"
   v:val="VT0(15):26" />
					</v:userDefs>
					<path
   d="m 0,260.12 a 5.86088,5.86088 0 0 1 11.72,0 5.86088,5.86088 0 1 1 -11.72,0 z"
   class="st2"
   id="path35"
   inkscape:connector-curvature="0"
   style="fill:#2a2a2a;stroke:#2a2a2a;stroke-width:0.5;stroke-linecap:round;stroke-linejoin:round" />
				</g>
				<g
   id="shape341-14"
   v:mID="341"
   v:groupContext="shape"
   transform="translate(54.4777)">
					<title
   id="title38">圆形.48</title>
					<v:userDefs>
						<v:ud
   v:nameU="visVersion"
   v:val="VT0(15):26" />
					</v:userDefs>
					<path
   d="m 0,260.82 a 5.16083,5.16083 0 1 1 10.32,0 5.16083,5.16083 0 1 1 -10.32,0 z"
   class="st2"
   id="path40"
   inkscape:connector-curvature="0"
   style="fill:#2a2a2a;stroke:#2a2a2a;stroke-width:0.5;stroke-linecap:round;stroke-linejoin:round" />
				</g>
				<g
   id="shape342-16"
   v:mID="342"
   v:groupContext="shape"
   transform="translate(0.0936113,-65.424)">
					<title
   id="title43">圆形.50</title>
					<v:userDefs>
						<v:ud
   v:nameU="visVersion"
   v:val="VT0(15):26" />
					</v:userDefs>
					<path
   d="m 0,258.45 a 7.53185,7.53185 0 0 1 15.06,0 7.53185,7.53185 0 1 1 -15.06,0 z"
   class="st2"
   id="path45"
   inkscape:connector-curvature="0"
   style="fill:#2a2a2a;stroke:#2a2a2a;stroke-width:0.5;stroke-linecap:round;stroke-linejoin:round" />
				</g>
				<g
   id="shape343-18"
   v:mID="343"
   v:groupContext="shape"
   transform="translate(7.01314,-83.7592)">
					<title
   id="title48">圆形.51</title>
					<v:userDefs>
						<v:ud
   v:nameU="visVersion"
   v:val="VT0(15):26" />
					</v:userDefs>
					<path
   d="m 0,257.84 a 8.145,8.145 0 0 1 16.29,0 8.145,8.145 0 1 1 -16.29,0 z"
   class="st2"
   id="path50"
   inkscape:connector-curvature="0"
   style="fill:#2a2a2a;stroke:#2a2a2a;stroke-width:0.5;stroke-linecap:round;stroke-linejoin:round" />
				</g>
				<g
   id="shape344-20"
   v:mID="344"
   v:groupContext="shape"
   transform="translate(20.123,-99.5322)">
					<title
   id="title53">圆形.52</title>
					<v:userDefs>
						<v:ud
   v:nameU="visVersion"
   v:val="VT0(15):26" />
					</v:userDefs>
					<path
   d="m 0,257.84 a 8.145,8.145 0 0 1 16.29,0 8.145,8.145 0 1 1 -16.29,0 z"
   class="st2"
   id="path55"
   inkscape:connector-curvature="0"
   style="fill:#2a2a2a;stroke:#2a2a2a;stroke-width:0.5;stroke-linecap:round;stroke-linejoin:round" />
				</g>
				<g
   id="shape345-22"
   v:mID="345"
   v:groupContext="shape"
   transform="translate(38.6825,-108.332)">
					<title
   id="title58">圆形.53</title>
					<v:userDefs>
						<v:ud
   v:nameU="visVersion"
   v:val="VT0(15):26" />
					</v:userDefs>
					<path
   d="m 0,257.84 a 8.145,8.145 0 0 1 16.29,0 8.145,8.145 0 1 1 -16.29,0 z"
   class="st2"
   id="path60"
   inkscape:connector-curvature="0"
   style="fill:#2a2a2a;stroke:#2a2a2a;stroke-width:0.5;stroke-linecap:round;stroke-linejoin:round" />
				</g>
				<g
   id="shape346-24"
   v:mID="346"
   v:groupContext="shape"
   transform="translate(59.4526,-109.155)">
					<title
   id="title63">圆形.54</title>
					<v:userDefs>
						<v:ud
   v:nameU="visVersion"
   v:val="VT0(15):26" />
					</v:userDefs>
					<path
   d="m 0,257.84 a 8.145,8.145 0 0 1 16.29,0 8.145,8.145 0 1 1 -16.29,0 z"
   class="st2"
   id="path65"
   inkscape:connector-curvature="0"
   style="fill:#2a2a2a;stroke:#2a2a2a;stroke-width:0.5;stroke-linecap:round;stroke-linejoin:round" />
				</g>
				<g
   id="shape347-26"
   v:mID="347"
   v:groupContext="shape"
   transform="translate(79.0705,-101.589)">
					<title
   id="title68">圆形.55</title>
					<v:userDefs>
						<v:ud
   v:nameU="visVersion"
   v:val="VT0(15):26" />
					</v:userDefs>
					<path
   d="m 0,257.84 a 8.145,8.145 0 0 1 16.29,0 8.145,8.145 0 1 1 -16.29,0 z"
   class="st2"
   id="path70"
   inkscape:connector-curvature="0"
   style="fill:#2a2a2a;stroke:#2a2a2a;stroke-width:0.5;stroke-linecap:round;stroke-linejoin:round" />
				</g>
				<g
   id="shape348-28"
   v:mID="348"
   v:groupContext="shape"
   transform="translate(93.7741,-86.0369)">
					<title
   id="title73">圆形.56</title>
					<v:userDefs>
						<v:ud
   v:nameU="visVersion"
   v:val="VT0(15):26" />
					</v:userDefs>
					<path
   d="m 0,257.84 a 8.145,8.145 0 0 1 16.29,0 8.145,8.145 0 1 1 -16.29,0 z"
   class="st2"
   id="path75"
   inkscape:connector-curvature="0"
   style="fill:#2a2a2a;stroke:#2a2a2a;stroke-width:0.5;stroke-linecap:round;stroke-linejoin:round" />
				</g>
				<g
   id="shape349-30"
   v:mID="349"
   v:groupContext="shape"
   transform="translate(101.589,-66.4233)">
					<title
   id="title78">圆形.57</title>
					<v:userDefs>
						<v:ud
   v:nameU="visVersion"
   v:val="VT0(15):26" />
					</v:userDefs>
					<path
   d="m 0,257.84 a 8.145,8.145 0 0 1 16.29,0 8.145,8.145 0 1 1 -16.29,0 z"
   class="st2"
   id="path80"
   inkscape:connector-curvature="0"
   style="fill:#2a2a2a;stroke:#2a2a2a;stroke-width:0.5;stroke-linecap:round;stroke-linejoin:round" />
				</g>
			</g>
			<g
   id="shape350-32"
   v:mID="350"
   v:groupContext="shape"
   transform="rotate(105.104,192.73555,281.51301)">
				<title
   id="title84">工作表.350</title>
				<path
   d="M 0,265.98 H 41.88"
   class="st3"
   id="path86"
   inkscape:connector-curvature="0"
   style="stroke:#2a2a2a;stroke-width:10;stroke-linecap:round;stroke-linejoin:round" />
			</g>
			<g
   id="shape351-35"
   v:mID="351"
   v:groupContext="shape"
   transform="rotate(23.9625,441.48751,686.3342)">
				<title
   id="title89">工作表.351</title>
				<path
   d="M 0,265.98 H 41.88"
   class="st3"
   id="path91"
   inkscape:connector-curvature="0"
   style="stroke:#2a2a2a;stroke-width:10;stroke-linecap:round;stroke-linejoin:round" />
			</g>
		</g>
	</g>
</svg>
